src/assets/images/pattern.svg

<?xml version="1.0" encoding="UTF-8"?>
<svg width="417px" height="108px" viewBox="0 0 417 108" version="1.1" xmlns="http://www.w3.org/2000/svg" xmlns:xlink="http://www.w3.org/1999/xlink">
    <!-- Generator: Sketch 52.6 (67491) - http://www.bohemiancoding.com/sketch -->
    <title>pattern 01</title>
    <desc>Created with Sketch.</desc>
    <defs>
        <path d="M48.3794445,210.219169 C46.005003,212.59361 42.1552727,212.59361 39.7808311,210.219169 C37.4063896,207.844727 37.4063896,203.994997 39.7808311,201.620555 L239.620555,1.78083114 C241.994997,-0.59361038 245.844727,-0.59361038 248.219169,1.78083114 C250.59361,4.15527266 250.59361,8.005003 248.219169,10.3794445 L48.3794445,210.219169 Z M10.3794445,210.219169 C8.005003,212.59361 4.15527266,212.59361 1.78083114,210.219169 C-0.59361038,207.844727 -0.59361038,203.994997 1.78083114,201.620555 L201.620555,1.78083114 C203.994997,-0.59361038 207.844727,-0.59361038 210.219169,1.78083114 C212.59361,4.15527266 212.59361,8.005003 210.219169,10.3794445 L10.3794445,210.219169 Z M197.379445,210.219169 C195.005003,212.59361 191.155273,212.59361 188.780831,210.219169 C186.40639,207.844727 186.40639,203.994997 188.780831,201.620555 L388.620555,1.78083114 C390.994997,-0.59361038 394.844727,-0.59361038 397.219169,1.78083114 C399.59361,4.15527266 399.59361,8.005003 397.219169,10.3794445 L197.379445,210.219169 Z M123.379445,210.219169 C121.005003,212.59361 117.155273,212.59361 114.780831,210.219169 C112.40639,207.844727 112.40639,203.994997 114.780831,201.620555 L314.620555,1.78083114 C316.994997,-0.59361038 320.844727,-0.59361038 323.219169,1.78083114 C325.59361,4.15527266 325.59361,8.005003 323.219169,10.3794445 L123.379445,210.219169 Z M272.379445,210.219169 C270.005003,212.59361 266.155273,212.59361 263.780831,210.219169 C261.40639,207.844727 261.40639,203.994997 263.780831,201.620555 L463.620555,1.78083114 C465.994997,-0.59361038 469.844727,-0.59361038 472.219169,1.78083114 C474.59361,4.15527266 474.59361,8.005003 472.219169,10.3794445 L272.379445,210.219169 Z M85.3794445,210.219169 C83.005003,212.59361 79.1552727,212.59361 76.7808311,210.219169 C74.4063896,207.844727 74.4063896,203.994997 76.7808311,201.620555 L276.620555,1.78083114 C278.994997,-0.59361038 282.844727,-0.59361038 285.219169,1.78083114 C287.59361,4.15527266 287.59361,8.005003 285.219169,10.3794445 L85.3794445,210.219169 Z M235.379445,210.219169 C233.005003,212.59361 229.155273,212.59361 226.780831,210.219169 C224.40639,207.844727 224.40639,203.994997 226.780831,201.620555 L426.620555,1.78083114 C428.994997,-0.59361038 432.844727,-0.59361038 435.219169,1.78083114 C437.59361,4.15527266 437.59361,8.005003 435.219169,10.3794445 L235.379445,210.219169 Z M160.379445,210.219169 C158.005003,212.59361 154.155273,212.59361 151.780831,210.219169 C149.40639,207.844727 149.40639,203.994997 151.780831,201.620555 L351.620555,1.78083114 C353.994997,-0.59361038 357.844727,-0.59361038 360.219169,1.78083114 C362.59361,4.15527266 362.59361,8.005003 360.219169,10.3794445 L160.379445,210.219169 Z M310.379445,210.219169 C308.005003,212.59361 304.155273,212.59361 301.780831,210.219169 C299.40639,207.844727 299.40639,203.994997 301.780831,201.620555 L501.620555,1.78083114 C503.994997,-0.59361038 507.844727,-0.59361038 510.219169,1.78083114 C512.59361,4.15527266 512.59361,8.005003 510.219169,10.3794445 L310.379445,210.219169 Z" id="path-1"></path>
    </defs>
    <g id="Page-1" stroke="none" stroke-width="1" fill="none" fill-rule="evenodd" opacity="0.5">
        <g id="social-update-02" transform="translate(-723.000000, 0.000000)">
            <g id="pattern-01" transform="translate(723.000000, -104.000000)">
                <mask id="mask-2" fill="white">
                    <use xlink:href="#path-1"></use>
                </mask>
                <use id="Mask" fill="#FFFFFF" fill-rule="nonzero" xlink:href="#path-1"></use>
                <g id="colour-/-white" mask="url(#mask-2)" fill="#FFFFFF" fill-rule="evenodd">
                    <rect id="Rectangle" x="0" y="0" width="512" height="212"></rect>
                </g>
            </g>
        </g>
    </g>
</svg>

<svg xmlns="http://www.w3.org/2000/svg" width="417" height="108" xmlns:xlink="http://www.w3.org/1999/xlink"><title>pattern 01</title><desc>Created with Sketch.</desc><defs><path id="a" d="M48.38 210.22c-2.37 2.37-6.22 2.37-8.6 0-2.37-2.38-2.37-6.23 0-8.6L239.62 1.78c2.37-2.37 6.22-2.37 8.6 0 2.37 2.38 2.37 6.23 0 8.6L48.38 210.22zm-38 0c-2.37 2.37-6.22 2.37-8.6 0-2.37-2.38-2.37-6.23 0-8.6L201.62 1.78c2.37-2.37 6.22-2.37 8.6 0 2.37 2.38 2.37 6.23 0 8.6L10.38 210.22zm187 0c-2.37 2.37-6.22 2.37-8.6 0-2.37-2.38-2.37-6.23 0-8.6L388.62 1.78c2.37-2.37 6.22-2.37 8.6 0 2.37 2.38 2.37 6.23 0 8.6L197.38 210.22zm-74 0c-2.37 2.37-6.22 2.37-8.6 0-2.37-2.38-2.37-6.23 0-8.6L314.62 1.78c2.37-2.37 6.22-2.37 8.6 0 2.37 2.38 2.37 6.23 0 8.6L123.38 210.22zm149 0c-2.37 2.37-6.22 2.37-8.6 0-2.37-2.38-2.37-6.23 0-8.6L463.62 1.78c2.37-2.37 6.22-2.37 8.6 0 2.37 2.38 2.37 6.23 0 8.6L272.38 210.22zm-187 0c-2.37 2.37-6.22 2.37-8.6 0-2.37-2.38-2.37-6.23 0-8.6L276.62 1.78c2.37-2.37 6.22-2.37 8.6 0 2.37 2.38 2.37 6.23 0 8.6L85.38 210.22zm150 0c-2.37 2.37-6.22 2.37-8.6 0-2.37-2.38-2.37-6.23 0-8.6L426.62 1.78c2.37-2.37 6.22-2.37 8.6 0 2.37 2.38 2.37 6.23 0 8.6L235.38 210.22zm-75 0c-2.37 2.37-6.22 2.37-8.6 0-2.37-2.38-2.37-6.23 0-8.6L351.62 1.78c2.37-2.37 6.22-2.37 8.6 0 2.37 2.38 2.37 6.23 0 8.6L160.38 210.22zm150 0c-2.37 2.37-6.22 2.37-8.6 0-2.37-2.38-2.37-6.23 0-8.6L501.62 1.78c2.37-2.37 6.22-2.37 8.6 0 2.37 2.38 2.37 6.23 0 8.6L310.38 210.22z"/></defs><g fill="none" opacity=".5"><g><g transform="translate(-723) translate(723 -104)"><mask id="b"><use xlink:href="#a"/></mask><use fill="#fff" fill-rule="nonzero" xlink:href="#a"/><g fill="#fff" mask="url(#b)"><path d="M0 0h512v212H0z"/></g></g></g></g></svg>
